X: 2
T: Polka D'Alfred Couillard
M: 4/4
L: 1/8
R: polka / schottische
K: Dmaj
K: Gmaj
|: D2 GA BGBd | c2 B2 B4 | B2 AB cAFG | A2 G2 F2 E2 |
D2 GA BGBd | c2 B2 B4 | B2 AB cAFG | A2 G2 G4 :|
|: D2 D2 D4 | E2 E2 D4 | B2 AB cAFG | A2 G2 F2 E2 |
D2 D2 D4 | E2 E2 D4 | B2 AB cAFG | A2 G2 G4 :|
